symbolic/apps/pamac-tray-no-update.svg

<?xml version="1.0" encoding="UTF-8" standalone="no"?>
<!-- Created with Inkscape (http://www.inkscape.org/) -->

<svg
   xmlns:dc="http://purl.org/dc/elements/1.1/"
   xmlns:cc="http://creativecommons.org/ns#"
   xmlns:rdf="http://www.w3.org/1999/02/22-rdf-syntax-ns#"
   xmlns:svg="http://www.w3.org/2000/svg"
   xmlns="http://www.w3.org/2000/svg"
   xmlns:sodipodi="http://sodipodi.sourceforge.net/DTD/sodipodi-0.dtd"
   xmlns:inkscape="http://www.inkscape.org/namespaces/inkscape"
   width="16"
   height="16"
   id="svg4159"
   version="1.1"
   inkscape:version="0.92.4 5da689c313, 2019-01-14"
   viewBox="0 0 16 16"
   sodipodi:docname="pamac-tray-no-update2.svg">
  <title
     id="title815">Boston Icons</title>
  <defs
     id="defs4161">
    <inkscape:perspective
       sodipodi:type="inkscape:persp3d"
       inkscape:vp_x="0 : 8 : 1"
       inkscape:vp_y="0 : 1000 : 0"
       inkscape:vp_z="16 : 8 : 1"
       inkscape:persp3d-origin="8 : 5.3333333 : 1"
       id="perspective4709" />
  </defs>
  <sodipodi:namedview
     id="base"
     pagecolor="#3b3b3b"
     bordercolor="#00fff6"
     borderopacity="1"
     inkscape:pageopacity="0"
     inkscape:pageshadow="2"
     inkscape:zoom="31.392432"
     inkscape:cx="-5.1789978"
     inkscape:cy="6.742385"
     inkscape:current-layer="layer1"
     showgrid="false"
     inkscape:grid-bbox="true"
     inkscape:document-units="px"
     inkscape:window-width="1920"
     inkscape:window-height="1016"
     inkscape:window-x="0"
     inkscape:window-y="27"
     inkscape:window-maximized="1"
     showguides="false"
     inkscape:guide-bbox="true">
    <inkscape:grid
       type="xygrid"
       id="grid4707" />
    <sodipodi:guide
       position="7,5"
       orientation="0.70710678,0.70710678"
       id="guide819"
       inkscape:locked="false" />
    <sodipodi:guide
       position="7,5"
       orientation="-0.70710678,0.70710678"
       id="guide821"
       inkscape:locked="false" />
  </sodipodi:namedview>
  <metadata
     id="metadata4164">
    <rdf:RDF>
      <cc:Work
         rdf:about="">
        <dc:format>image/svg+xml</dc:format>
        <dc:type
           rdf:resource="http://purl.org/dc/dcmitype/StillImage" />
        <dc:title>Boston Icons</dc:title>
        <cc:license
           rdf:resource="https://dribbble.com/chrisdiaz" />
        <dc:creator>
          <cc:Agent>
            <dc:title>Christian Díaz</dc:title>
          </cc:Agent>
        </dc:creator>
        <dc:description>diazchris.deviantart.com | dribbble.com/chrisdiaz</dc:description>
        <dc:date>2019</dc:date>
        <dc:publisher>
          <cc:Agent>
            <dc:title>Christian Díaz</dc:title>
          </cc:Agent>
        </dc:publisher>
        <dc:identifier>christiandiaz.design [at] gmail [dot] com</dc:identifier>
        <dc:subject>
          <rdf:Bag>
            <rdf:li>GNOME icon Theme</rdf:li>
          </rdf:Bag>
        </dc:subject>
      </cc:Work>
    </rdf:RDF>
  </metadata>
  <g
     id="layer1"
     inkscape:label="Layer 1"
     inkscape:groupmode="layer">
    <path
       style="opacity:0.85;fill:#ffffff;fill-opacity:1;fill-rule:nonzero;stroke:none;stroke-width:2;stroke-linecap:square;stroke-linejoin:bevel;stroke-miterlimit:4;stroke-dasharray:none;stroke-dashoffset:35;stroke-opacity:1"
       d="M 8,1 C 4.1340068,1 1,4.1340068 1,8 c 0,3.865993 3.1340068,7 7,7 3.865993,0 7,-3.134007 7,-7 C 15,4.1340068 11.865993,1 8,1 Z m 0,2 a 5,5 0 0 1 0.5,0.025391 5,5 0 0 1 0.4941406,0.074219 5,5 0 0 1 0.484375,0.1230468 5,5 0 0 1 0.46875,0.171875 5,5 0 0 1 0.4492184,0.2167969 5,5 0 0 1 0.425782,0.2617188 5,5 0 0 1 0.398437,0.3027343 5,5 0 0 1 0.365235,0.3398438 5,5 0 0 1 0.330078,0.3769531 5,5 0 0 1 0.291015,0.40625 5,5 0 0 1 0.248047,0.4335938 5,5 0 0 1 0.205078,0.4550781 5,5 0 0 1 0.158203,0.4746094 5,5 0 0 1 0.109375,0.4882812 5,5 0 0 1 0.06055,0.4960938 A 5,5 0 0 1 13,8 a 5,5 0 0 1 -0.02539,0.5 5,5 0 0 1 -0.07422,0.4941406 5,5 0 0 1 -0.123047,0.484375 5,5 0 0 1 -0.171875,0.46875 5,5 0 0 1 -0.216797,0.4492184 5,5 0 0 1 -0.261719,0.425782 5,5 0 0 1 -0.302734,0.398437 5,5 0 0 1 -0.339844,0.365235 5,5 0 0 1 -0.376953,0.330078 5,5 0 0 1 -0.40625,0.291015 5,5 0 0 1 -0.433594,0.248047 A 5,5 0 0 1 9.8125,12.660156 5,5 0 0 1 9.3378906,12.818359 5,5 0 0 1 8.8496094,12.927734 5,5 0 0 1 8.3535156,12.988281 5,5 0 0 1 8,13 5,5 0 0 1 7.5,12.974609 5,5 0 0 1 7.0058594,12.900391 5,5 0 0 1 6.5214844,12.777344 5,5 0 0 1 6.0527344,12.605469 5,5 0 0 1 5.6035156,12.388672 5,5 0 0 1 5.1777344,12.126953 5,5 0 0 1 4.7792969,11.824219 5,5 0 0 1 4.4140625,11.484375 5,5 0 0 1 4.0839844,11.107422 5,5 0 0 1 3.7929688,10.701172 5,5 0 0 1 3.5449219,10.267578 5,5 0 0 1 3.3398438,9.8125 5,5 0 0 1 3.1816406,9.3378906 5,5 0 0 1 3.0722656,8.8496094 5,5 0 0 1 3.0117188,8.3535156 5,5 0 0 1 3,8 5,5 0 0 1 3.0253906,7.5 5,5 0 0 1 3.0996094,7.0058594 5,5 0 0 1 3.2226562,6.5214844 5,5 0 0 1 3.3945312,6.0527344 5,5 0 0 1 3.6113281,5.6035156 5,5 0 0 1 3.8730469,5.1777344 5,5 0 0 1 4.1757812,4.7792969 5,5 0 0 1 4.515625,4.4140625 5,5 0 0 1 4.8925781,4.0839844 5,5 0 0 1 5.2988281,3.7929688 5,5 0 0 1 5.7324219,3.5449219 5,5 0 0 1 6.1875,3.3398438 5,5 0 0 1 6.6621094,3.1816406 5,5 0 0 1 7.1503906,3.0722656 5,5 0 0 1 7.6464844,3.0117188 5,5 0 0 1 8,3 Z"
       id="path817"
       inkscape:connector-curvature="0" />
    <path
       style="color:#000000;font-style:normal;font-variant:normal;font-weight:normal;font-stretch:normal;font-size:medium;line-height:normal;font-family:sans-serif;font-variant-ligatures:normal;font-variant-position:normal;font-variant-caps:normal;font-variant-numeric:normal;font-variant-alternates:normal;font-feature-settings:normal;text-indent:0;text-align:start;text-decoration:none;text-decoration-line:none;text-decoration-style:solid;text-decoration-color:#000000;letter-spacing:normal;word-spacing:normal;text-transform:none;writing-mode:lr-tb;direction:ltr;text-orientation:mixed;dominant-baseline:auto;baseline-shift:baseline;text-anchor:start;white-space:normal;shape-padding:0;clip-rule:nonzero;display:inline;overflow:visible;visibility:visible;opacity:0.85;isolation:auto;mix-blend-mode:normal;color-interpolation:sRGB;color-interpolation-filters:linearRGB;solid-color:#000000;solid-opacity:1;vector-effect:none;fill:#ffffff;fill-opacity:1;fill-rule:nonzero;stroke:none;stroke-width:2;stroke-linecap:butt;stroke-linejoin:miter;stroke-miterlimit:4;stroke-dasharray:none;stroke-dashoffset:0;stroke-opacity:1;color-rendering:auto;image-rendering:auto;shape-rendering:auto;text-rendering:auto;enable-background:accumulate"
       d="M 10.292969,4.9394534 7.0000001,8.2324221 5.7070313,6.9394534 4.2929689,8.3535158 7.0000001,11.060547 11.707031,6.3535158 Z"
       id="path837"
       inkscape:connector-curvature="0" />
  </g>
</svg>

<?xml version="1.0" encoding="UTF-8" standalone="no"?>
<!-- Created with Inkscape (http://www.inkscape.org/) -->

<svg
   xmlns:dc="http://purl.org/dc/elements/1.1/"
   xmlns:cc="http://creativecommons.org/ns#"
   xmlns:rdf="http://www.w3.org/1999/02/22-rdf-syntax-ns#"
   xmlns:svg="http://www.w3.org/2000/svg"
   xmlns="http://www.w3.org/2000/svg"
   xmlns:sodipodi="http://sodipodi.sourceforge.net/DTD/sodipodi-0.dtd"
   xmlns:inkscape="http://www.inkscape.org/namespaces/inkscape"
   width="16"
   height="16"
   id="svg4159"
   version="1.1"
   inkscape:version="0.92.4 5da689c313, 2019-01-14"
   viewBox="0 0 16 16"
   sodipodi:docname="pamac-tray-no-update.svg">
  <title
     id="title815">Boston Icons</title>
  <defs
     id="defs4161">
    <inkscape:perspective
       sodipodi:type="inkscape:persp3d"
       inkscape:vp_x="0 : 8 : 1"
       inkscape:vp_y="0 : 1000 : 0"
       inkscape:vp_z="16 : 8 : 1"
       inkscape:persp3d-origin="8 : 5.3333333 : 1"
       id="perspective4709" />
  </defs>
  <sodipodi:namedview
     id="base"
     pagecolor="#3b3b3b"
     bordercolor="#00fff6"
     borderopacity="1"
     inkscape:pageopacity="0"
     inkscape:pageshadow="2"
     inkscape:zoom="31.392432"
     inkscape:cx="5.572001"
     inkscape:cy="6.742385"
     inkscape:current-layer="layer1"
     showgrid="false"
     inkscape:grid-bbox="true"
     inkscape:document-units="px"
     inkscape:window-width="1920"
     inkscape:window-height="1016"
     inkscape:window-x="0"
     inkscape:window-y="27"
     inkscape:window-maximized="1"
     showguides="false"
     inkscape:guide-bbox="true">
    <inkscape:grid
       type="xygrid"
       id="grid4707" />
    <sodipodi:guide
       position="7,5"
       orientation="0.70710678,0.70710678"
       id="guide819"
       inkscape:locked="false" />
    <sodipodi:guide
       position="7,5"
       orientation="-0.70710678,0.70710678"
       id="guide821"
       inkscape:locked="false" />
  </sodipodi:namedview>
  <metadata
     id="metadata4164">
    <rdf:RDF>
      <cc:Work
         rdf:about="">
        <dc:format>image/svg+xml</dc:format>
        <dc:type
           rdf:resource="http://purl.org/dc/dcmitype/StillImage" />
        <dc:title>Boston Icons</dc:title>
        <cc:license
           rdf:resource="https://dribbble.com/chrisdiaz" />
        <dc:creator>
          <cc:Agent>
            <dc:title>Christian Díaz</dc:title>
          </cc:Agent>
        </dc:creator>
        <dc:description>diazchris.deviantart.com | dribbble.com/chrisdiaz</dc:description>
        <dc:date>2019</dc:date>
        <dc:publisher>
          <cc:Agent>
            <dc:title>Christian Díaz</dc:title>
          </cc:Agent>
        </dc:publisher>
        <dc:identifier>christiandiaz.design [at] gmail [dot] com</dc:identifier>
        <dc:subject>
          <rdf:Bag>
            <rdf:li>GNOME icon Theme</rdf:li>
          </rdf:Bag>
        </dc:subject>
      </cc:Work>
    </rdf:RDF>
  </metadata>
  <g
     id="layer1"
     inkscape:label="Layer 1"
     inkscape:groupmode="layer">
    <path
       style="opacity:0.85;fill:#ffffff;fill-opacity:1;fill-rule:nonzero;stroke:none;stroke-width:2;stroke-linecap:square;stroke-linejoin:bevel;stroke-miterlimit:4;stroke-dasharray:none;stroke-dashoffset:35;stroke-opacity:1"
       d="M 8 1 C 4.1340068 1 1 4.1340068 1 8 C 1 11.865993 4.1340068 15 8 15 C 11.865993 15 15 11.865993 15 8 C 15 4.1340068 11.865993 1 8 1 z M 8 3 A 5 5 0 0 1 8.5 3.0253906 A 5 5 0 0 1 8.9941406 3.0996094 A 5 5 0 0 1 9.4785156 3.2226562 A 5 5 0 0 1 9.9472656 3.3945312 A 5 5 0 0 1 10.396484 3.6113281 A 5 5 0 0 1 10.822266 3.8730469 A 5 5 0 0 1 11.220703 4.1757812 A 5 5 0 0 1 11.585938 4.515625 A 5 5 0 0 1 11.916016 4.8925781 A 5 5 0 0 1 12.207031 5.2988281 A 5 5 0 0 1 12.455078 5.7324219 A 5 5 0 0 1 12.660156 6.1875 A 5 5 0 0 1 12.818359 6.6621094 A 5 5 0 0 1 12.927734 7.1503906 A 5 5 0 0 1 12.988281 7.6464844 A 5 5 0 0 1 13 8 A 5 5 0 0 1 12.974609 8.5 A 5 5 0 0 1 12.900391 8.9941406 A 5 5 0 0 1 12.777344 9.4785156 A 5 5 0 0 1 12.605469 9.9472656 A 5 5 0 0 1 12.388672 10.396484 A 5 5 0 0 1 12.126953 10.822266 A 5 5 0 0 1 11.824219 11.220703 A 5 5 0 0 1 11.484375 11.585938 A 5 5 0 0 1 11.107422 11.916016 A 5 5 0 0 1 10.701172 12.207031 A 5 5 0 0 1 10.267578 12.455078 A 5 5 0 0 1 9.8125 12.660156 A 5 5 0 0 1 9.3378906 12.818359 A 5 5 0 0 1 8.8496094 12.927734 A 5 5 0 0 1 8.3535156 12.988281 A 5 5 0 0 1 8 13 A 5 5 0 0 1 7.5 12.974609 A 5 5 0 0 1 7.0058594 12.900391 A 5 5 0 0 1 6.5214844 12.777344 A 5 5 0 0 1 6.0527344 12.605469 A 5 5 0 0 1 5.6035156 12.388672 A 5 5 0 0 1 5.1777344 12.126953 A 5 5 0 0 1 4.7792969 11.824219 A 5 5 0 0 1 4.4140625 11.484375 A 5 5 0 0 1 4.0839844 11.107422 A 5 5 0 0 1 3.7929688 10.701172 A 5 5 0 0 1 3.5449219 10.267578 A 5 5 0 0 1 3.3398438 9.8125 A 5 5 0 0 1 3.1816406 9.3378906 A 5 5 0 0 1 3.0722656 8.8496094 A 5 5 0 0 1 3.0117188 8.3535156 A 5 5 0 0 1 3 8 A 5 5 0 0 1 3.0253906 7.5 A 5 5 0 0 1 3.0996094 7.0058594 A 5 5 0 0 1 3.2226562 6.5214844 A 5 5 0 0 1 3.3945312 6.0527344 A 5 5 0 0 1 3.6113281 5.6035156 A 5 5 0 0 1 3.8730469 5.1777344 A 5 5 0 0 1 4.1757812 4.7792969 A 5 5 0 0 1 4.515625 4.4140625 A 5 5 0 0 1 4.8925781 4.0839844 A 5 5 0 0 1 5.2988281 3.7929688 A 5 5 0 0 1 5.7324219 3.5449219 A 5 5 0 0 1 6.1875 3.3398438 A 5 5 0 0 1 6.6621094 3.1816406 A 5 5 0 0 1 7.1503906 3.0722656 A 5 5 0 0 1 7.6464844 3.0117188 A 5 5 0 0 1 8 3 z "
       id="path817" />
    <path
       style="color:#000000;font-style:normal;font-variant:normal;font-weight:normal;font-stretch:normal;font-size:medium;line-height:normal;font-family:sans-serif;font-variant-ligatures:normal;font-variant-position:normal;font-variant-caps:normal;font-variant-numeric:normal;font-variant-alternates:normal;font-feature-settings:normal;text-indent:0;text-align:start;text-decoration:none;text-decoration-line:none;text-decoration-style:solid;text-decoration-color:#000000;letter-spacing:normal;word-spacing:normal;text-transform:none;writing-mode:lr-tb;direction:ltr;text-orientation:mixed;dominant-baseline:auto;baseline-shift:baseline;text-anchor:start;white-space:normal;shape-padding:0;clip-rule:nonzero;display:inline;overflow:visible;visibility:visible;opacity:0.85;isolation:auto;mix-blend-mode:normal;color-interpolation:sRGB;color-interpolation-filters:linearRGB;solid-color:#000000;solid-opacity:1;vector-effect:none;fill:#ffffff;fill-opacity:1;fill-rule:nonzero;stroke:none;stroke-width:2;stroke-linecap:butt;stroke-linejoin:miter;stroke-miterlimit:4;stroke-dasharray:none;stroke-dashoffset:0;stroke-opacity:1;color-rendering:auto;image-rendering:auto;shape-rendering:auto;text-rendering:auto;enable-background:accumulate"
       d="M 10.292969,4.9394534 7.0000001,8.2324221 5.7070313,6.9394534 4.2929689,8.3535158 7.0000001,11.060547 11.707031,6.3535158 Z"
       id="path837"
       inkscape:connector-curvature="0" />
  </g>
</svg>
